X:183
T:The Strenuous Life
C:by Scott Joplin
N:TablEdited by Alan Howard
L:1/8
Q:1/4=60
M:2/4
K:C
gg zf/e/ | d/c/B/c/ dG | [cD][c2D2][cD] | [B2F2] [g2B2G2] |: [GE]G z/E/F/G/ | 
e/c/A/G/ z/G/c/e/ | [d/B/][dB][^c/^A/] [dB][^dB] | [ec]G/A/ z/G/A/B/ | [GE]G z/E/F/G/ | 
e/c/A/G/ z[e^AG] | [d/B/][dB][d/B/] [e^c][^f=c] | [gB]A/G/ z/F/E/D/ | [GE]G z/E/F/G/ | 
e/c/A/G/ z/G/c/e/ | [d/B/][dB][^c/^A/] [dB][^dB] | [e3c3][ec] | [f/c/]e/f/[c'/f/c/] z/[c'fc]b/ | 
[c'/e/c/]g/e/c/ [f/^c/G/][ecG][A/G/] | [c/^F/][cF][e/F/] [d/=F/]c/[dF] |1 [cE]B/A/ G/F/E/D/ :|2 [cE]G CB/d/ | 
K:G
|: [c/F/][cF][B/F/] [c/F/]c/B/A/ | G/A/B/d/ z/ed/ | [c/F/][cF][B/F/] [c/F/]c/B/A/ | 
GD z/GB/ | A/A^G/ A/A/B/A/ | G/A/B/d/ z/de/ | f/d/A/e/ z/a/g/^c/ | d[a^c] [d'f]B/d/ | 
[c/F/][cF][B/F/] [c/F/]c/B/A/ | G/A/B/d/ z/ed/ | [c/F/][cF][B/F/] [c/F/]c/B/A/ | 
GD zD | E/G/c/e/ z/g/f/e/ | d/e/d/B/ GG/A/ | B/d/e/d/ [A/C/][AC][D/C/] |1 [GB,]D/E/ F/G/A/B/ :|2 [G2B,2] [g2B2G2] | 
[GE]G z/E/=F/G/ | e/c/A/G/ z/G/c/e/ | [d/B/][dB][^c/^A/] [dB][^dB] | [ec]G/A/ z/G/A/B/ | 
[GE]G z/E/=F/G/ | e/c/A/G/ z[e^AG] | [d/B/][dB][d/B/] [e^c][f=c] | [gB]A/G/ z/=F/E/D/ | 
[GE]G z/E/=F/G/ | e/c/A/G/ z/G/c/e/ | [d/B/][dB][^c/^A/] [dB][^dB] | [e3c3][ec] | 
[=f/c/]e/f/[c'/f/c/] z/[c'fc]b/ | [c'/e/c/]g/e/c/ [=f/^c/G/][ecG][A/G/] | [c/F/][cF][e/F/] [d/=F/]c/[dF] | 
[c2E2] [c'2e2] | 
K:F
FF2A | c/A/F/A/ cC | [BG][B/G/][B/G/] z/[B/G/][BG] | [BG][fB] [eB][BE] |: [A/F/]^G/A/d/ z/c/F/=G/ | 
[AC][^G=B,] [A/C/]C/F/=G/ | A/^G/A/d/ z/c/=G/A/ | [BE][A^D] [B/E/]C/E/G/ | B/A/B/e/ z/d/G/A/ | 
[BE][A^D] [B/E/]C/E/G/ | B/A/B/e/ z/d/c/B/ | A2 z/C/F/G/ | A/^G/A/d/ z/c/F/=G/ | 
[AC][^G=B,] [A/C/]f/e/d/ | ^c/A/^c/e/ [aA][gc] | [f3d3]_e | d/e/f/d/ z/e/f/g/ | 
[ac][^g=B] [a/c/]f/e/d/ | c/c'/b/e/ [ac][gB] |1 [fA]c/c/ cc :|2 [f2A2] z/[f'd'][e'/c'/] | 
|: [d'/b/][^c'/a/][d'/b/][e'/b/] z/[d'b][c'/a/] | [d'2b2] z/[e'b][d'/b/] | [c'/a/]=b/c'/[d'/a/] z/[c'a]b/ | 
[c'2a2] z/d'c'/ | [b/e/]a/b/[c'/e/] z/[be]a/ | [b2e2] z/[ac]g/ | [f/A/]g/a/[c'/c/] z/[e'^g][d'/g/] | 
[c'2a2] z/[f'd'][e'/c'/] | [d'/b/][^c'/a/][d'/b/][e'/b/] z/[d'b][c'/a/] | [d'2b2] z/[e'b][d'/b/] | 
[c'/a/]=b/c'/[d'/a/] z/[c'a]b/ | [c'2a2] z/c'/a/g/ | [^f/c/]a/c'/[_e'/f/] z/[d'f]c'/ | 
[b/d/]a/b/[d'/d/] z/[f'/f/][e'/e/][d'/d/] | [c'/c/][aA][c'/c/] [b/d/][a/c/][gB] | 
|1 [f2A2] z/[f'd'][e'/c'/] :|2 [f2A2F2] [f'2a2f2] | 


